!!!!SEGMENT: Snf0327-Sum_tuus_in_vita_II--Bartfa_22.krn
!!!id: Snf0327
!!!AGN: Motet
!!!voices: 3
!!!COM: Ludwig Senfl
!!!SMS: Bartfa 22
!!!OTL: Sum tuus in vita II (Bartfa 22)
**kern	**text	**kern	**text	**kern	**text
*part3	*part3	*part2	*part2	*part1	*part1
*staff3	*staff3	*staff2	*staff2	*staff1	*staff1
*I"Bassus	*	*I"Tenor II	*	*I"Tenor I	*
*I'B	*	*I'T. II	*	*I'T. I	*
*clefF4	*	*clefGv2	*	*clefGv2	*
*	*	*	*	*	*
*k[]	*	*k[]	*	*k[]	*
*C:	*	*C:	*	*C:	*
*M2/1	*	*M2/1	*	*M2/1	*
*met(C|)	*	*met(C|)	*	*met(C|)	*
!!section: Prima pars: Sum tuus in vita
!!!OMD: Prima pars: Sum tuus in vita
=1	=1	=1	=1	=1	=1
!LO:TX:a:t=Canon&colon; tenor I/bassus at the octave	!	!	!	!LO:TX:a:t=Superius, altus, and secunda pars bassus not extant	!
0r	.	0r	.	0r	.
=2	=2	=2	=2	=2	=2
0r	.	1r	.	0r	.
.	.	1c	Sum	.	.
=3	=3	=3	=3	=3	=3
0r	.	1A	tu-	0r	.
.	.	1G	-us,	.	.
=4	=4	=4	=4	=4	=4
0r	.	1r	.	0r	.
.	.	1G	sum	.	.
=5	=5	=5	=5	=5	=5
0r	.	2A	tu-	0r	.
.	.	1c	.	.	.
.	.	2B	.	.	.
=6	=6	=6	=6	=6	=6
0r	.	1c	.	0c	Sum
.	.	1C	.	.	.
=7	=7	=7	=7	=7	=7
0r	.	0D	.	0A	tu-
=8	=8	=8	=8	=8	=8
0C	Sum	1E	-us,	0G	-us
.	.	2r	.	.	.
.	.	2E	sum	.	.
=9	=9	=9	=9	=9	=9
0AA	tu-	2.C	tu-	1A	in
.	.	4D	.	.	.
.	.	2E	.	[1c	vi-
.	.	2C	.	.	.
=10	=10	=10	=10	=10	=10
0GG	-us	0G	-us	2c]	.
.	.	.	.	4B	.
.	.	.	.	4A	.
.	.	.	.	1B	.
=11	=11	=11	=11	=11	=11
1AA	in	1r	.	0c	-ta,
[1C	vi-	2r	.	.	.
.	.	[2G	in	.	.
=12	=12	=12	=12	=12	=12
2C]	.	4G]	.	0r	.
.	.	4A	.	.	.
4BB	.	2.B	vi-	.	.
4AA	.	.	.	.	.
1BB	.	.	.	.	.
.	.	4A	.	.	.
.	.	4G	.	.	.
.	.	4F	.	.	.
=13	=13	=13	=13	=13	=13
0C	-ta,	0E	-ta,	[0G	tu-
=14	=14	=14	=14	=14	=14
0r	.	2r	.	1G]	.
.	.	2E	tu-	.	.
.	.	1D	-a	1A	-a
=15	=15	=15	=15	=15	=15
[0GG	tu-	[0G	sunt	2.B	sunt
.	.	.	.	4A	.
.	.	.	.	4B	.
.	.	.	.	4c	.
.	.	.	.	[2d	me-
=16	=16	=16	=16	=16	=16
1GG]	.	1G]	.	2d]	.
.	.	.	.	4c	.
.	.	.	.	4B	.
1AA	sunt	1E	me-	1c	.
=17	=17	=17	=17	=17	=17
2.BB	.	0D	-a	0d	-a
4AA	.	.	.	.	.
4BB	.	.	.	.	.
4C	.	.	.	.	.
[2D	me-	.	.	.	.
=18	=18	=18	=18	=18	=18
2D]	.	1r	.	1.A	fu-
4C	.	.	.	.	.
4BB	.	.	.	.	.
1C	.	1A	fu-	.	.
.	.	.	.	2A	-ne-
=19	=19	=19	=19	=19	=19
0D	-a	2F	-ne-	0A	-ra,
.	.	2D	-ra,	.	.
.	.	2.F	Chri-	.	.
.	.	4G	.	.	.
=20	=20	=20	=20	=20	=20
1.AA	fu-	4A	.	0c	Chri-
.	.	4B	.	.	.
.	.	2c	.	.	.
.	.	2A	.	.	.
2AA	-ne-	[2c	.	.	.
=21	=21	=21	=21	=21	=21
0AA	-ra,	4c]	.	0A	-ste,
.	.	4B	.	.	.
.	.	1A	.	.	.
.	.	4G	.	.	.
.	.	4F	.	.	.
=22	=22	=22	=22	=22	=22
0C	Chri-	0E	-ste,	1r	.
.	.	.	.	1G	da
=23	=23	=23	=23	=23	=23
0AA	-ste,	0r	.	2A	pre-
.	.	.	.	2A	-cor
.	.	.	.	1c	im-
=24	=24	=24	=24	=24	=24
1r	.	2r	.	0B	-pe-
.	.	1D	da	.	.
1GG	da	.	.	.	.
.	.	2G	pre-	.	.
=25	=25	=25	=25	=25	=25
2AA	pre-	2F	.	1A	-ri-
2AA	-cor	4E	.	.	.
.	.	4D	.	.	.
1C	im-	1E	-cor	1G	-i
=26	=26	=26	=26	=26	=26
0BB	-pe-	2r	.	0r	.
.	.	1D	im-	.	.
.	.	2G	-pe-	.	.
=27	=27	=27	=27	=27	=27
1AA	-ri-	2.E	-ri-	1r	.
.	.	4F	.	.	.
1GG	-i	1G	-i	1d	sce-
=28	=28	=28	=28	=28	=28
0r	.	1A	sce-	1.c	-ptra
.	.	2F	-ptra	.	.
.	.	2F	vi-	2A	vi-
=29	=29	=29	=29	=29	=29
1r	.	1G	-de-	1B	-de-
1D	sce-	1D	-re	1A	-re,
=30	=30	=30	=30	=30	=30
1.C	-ptra	2.E	tu-	0r	.
.	.	4F	.	.	.
.	.	2G	.	.	.
2AA	vi-	[2A	.	.	.
=31	=31	=31	=31	=31	=31
1BB	-de-	2A]	.	0r	.
.	.	2G#i	.	.	.
1AA	-re,	[1A	-i,	.	.
=32	=32	=32	=32	=32	=32
0r	.	1A]	.	0c	vi-
.	.	2r	.	.	.
.	.	2A	vi-	.	.
=33	=33	=33	=33	=33	=33
0r	.	2A	-de-	0A	-de-
.	.	2A	-re	.	.
.	.	1A	tu-	.	.
=34	=34	=34	=34	=34	=34
0C	vi-	0E	-i,	0G	-re
=35	=35	=35	=35	=35	=35
0AA	-de-	2r	.	2.A	tu-
.	.	2E	[vi-	.	.
.	.	.	.	4G	.
.	.	2E	-de-	4A	.
.	.	.	.	4B	.
.	.	2E	-re	[2c	.
=36	=36	=36	=36	=36	=36
0GG	-re	0G	tu-	2c]	.
.	.	.	.	4B	.
.	.	.	.	4A	.
.	.	.	.	1B	.
=37	=37	=37	=37	=37	=37
2.AA	tu-	0E	-i,]	0c	-i,
4GG	.	.	.	.	.
4AA	.	.	.	.	.
4BB	.	.	.	.	.
[2C	.	.	.	.	.
=38	=38	=38	=38	=38	=38
2C]	.	2r	.	0r	.
4BB	.	2.G	vi-	.	.
4AA	.	.	.	.	.
1BB	.	.	.	.	.
.	.	4A	.	.	.
.	.	2B	.	.	.
=39	=39	=39	=39	=39	=39
0C	-i,	1E	-de-	1c	vi-
.	.	1C	-re	2.c	-de-
.	.	.	.	4B	.
=40	=40	=40	=40	=40	=40
0r	.	2D	tu-	2A	.
.	.	2E	.	2G	-re
.	.	1D	-i,	1A	tu-
=41	=41	=41	=41	=41	=41
1C	vi-	1r	.	0G	-i.
2.C	-de-	1G	vi-	.	.
4BB	.	.	.	.	.
=42	=42	=42	=42	=42	=42
2AA	.	2F	-de-	0r	.
2GG	-re	1G	-re	.	.
1AA	tu-	.	.	.	.
.	.	2F#i	tu-	.	.
=43	=43	=43	=43	=43	=43
0GG	-i.	1G	-i.	0g	Cur
.	.	2r	.	.	.
.	.	2G	Cur	.	.
=44	=44	=44	=44	=44	=44
0r	.	2D	et-	1f	et-
.	.	2D	-e-	.	.
.	.	1A	-nim,	1e	-e-
=45	=45	=45	=45	=45	=45
0G	Cur	1r	.	0d	-nim
.	.	2r	.	.	.
.	.	2B	cur	.	.
=46	=46	=46	=46	=46	=46
1F	et-	2A	et-	0r	.
.	.	1d	-e-	.	.
1E	-e-	.	.	.	.
.	.	2c#i	.	.	.
=47	=47	=47	=47	=47	=47
0D	-nim	1d	-nim	1.d	mo-
.	.	[1D	mo-	.	.
.	.	.	.	4c	.
.	.	.	.	4B	.
=48	=48	=48	=48	=48	=48
0r	.	2D]	.	2A	.
.	.	2C	.	2c	.
.	.	2D	.	1B	-ri-
.	.	2E	.	.	.
=49	=49	=49	=49	=49	=49
1.D	mo-	1.F	-ri-	0A	-ens
4C	.	4E	.	.	.
4BB	.	4D	.	.	.
=50	=50	=50	=50	=50	=50
2AA	.	2C	.	1r	.
2C	.	1E	.	.	.
1BB	-ri-	.	.	2r	.
.	.	2D	.	2G	tot
=51	=51	=51	=51	=51	=51
0AA	-ens	0E	-ens	2A	vul-
.	.	.	.	2A	-ne-
.	.	.	.	2A	-ra
.	.	.	.	[2c	sae-
=52	=52	=52	=52	=52	=52
1r	.	2r	.	4c]	.
.	.	.	.	4c	-va
.	.	2E	tot	2c	tu-
2r	.	2G	vul-	1B	-li-
2GG	tot	2G	-ne-	.	.
=53	=53	=53	=53	=53	=53
2AA	vul-	1E	-ra	0A	-sti,
2AA	-ne-	.	.	.	.
2AA	-ra	1E	sae-	.	.
[2C	sae-	.	.	.	.
=54	=54	=54	=54	=54	=54
4C]	.	2E	-va	1r	.
4C	-va	.	.	.	.
2C	tu-	2E	tu-	.	.
1BB	-li-	1D	-li-	1B	si
=55	=55	=55	=55	=55	=55
0AA	-sti,	2E	-sti,	1c	non
.	.	2E	tot	.	.
.	.	2F	vul-	2A	sum
.	.	2E	-ne-	[2c	re-
=56	=56	=56	=56	=56	=56
1r	.	1A	-ra	2c]	.
.	.	.	.	2c	-gni
1BB	si	1D	sae-	2.d	por-
.	.	.	.	4d	-ti-
=57	=57	=57	=57	=57	=57
1C	non	1.E	-va	1G	-o,
2AA	sum	.	.	1r	.
[2C	re-	2E	tu-	.	.
=58	=58	=58	=58	=58	=58
2C]	.	1E	-li-	1r	.
2C	-gni	.	.	.	.
2.D	por-	1F	.	2r	.
.	.	.	.	2d	si
4D	-ti-	.	.	.	.
=59	=59	=59	=59	=59	=59
1GG	-o,	2D	-sti,	1d	non
.	.	1G	si	.	.
1r	.	.	.	1d	sum
.	.	2F	non	.	.
=60	=60	=60	=60	=60	=60
1r	.	2G	sum	1d	re-
.	.	2B	re-	.	.
2r	.	4c	.	[1A	-gni
.	.	4B	.	.	.
2D	si	4A	.	.	.
.	.	4G	.	.	.
=61	=61	=61	=61	=61	=61
1D	non	4F	.	0A]	.
.	.	4E	.	.	.
.	.	1D	-gni	.	.
1D	sum	.	.	.	.
.	.	[2d	por-	.	.
=62	=62	=62	=62	=62	=62
1D	re-	4d]	.	0r	.
.	.	4c	.	.	.
.	.	4A	.	.	.
.	.	4B	.	.	.
[1AA	-gni	1c	-ti-	.	.
=63	=63	=63	=63	=63	=63
0AA]	.	1A	-o,	1c	por-
.	.	2r	.	2c	-ti-
.	.	2A	por-	2c	-o
=64	=64	=64	=64	=64	=64
0r	.	2d	.	2B	par-
.	.	2e	.	2c	-va
.	.	2c	-ti-	1A	tu-
.	.	2A	-o	.	.
=65	=65	=65	=65	=65	=65
1C	por-	1c	par-	0G	-i?
2C	-ti-	2G	-va	.	.
2C	-o	[2G	tu-	.	.
=66	=66	=66	=66	=66	=66
2BB	par-	4G]	.	0r	.
.	.	4F	.	.	.
*	*	*	*	*	*
2C	-va	4E	.	.	.
.	.	4D	.	.	.
1AA	tu-	1C	.	.	.
=67	=67	=67	=67	=67	=67
[0GGl	-i?	1D	-i,	[0Gl	-i?
.	.	1d	tu-	.	.
=68	=68	=68	=68	=68	=68
00GG]	.	00d	-i?	00G]	.
=69||	=69||	=69||	=69||	=69||	=69||
*M2/1	*	*M2/1	*	*M2/1	*
*	*	*met(C|)	*	*met(C|)	*
!!section: Secunda pars: Cur rigido
!!!OMD: Secunda pars: Cur rigido
0r	.	0r	.	0r	.
=70	=70	=70	=70	=70	=70
0r	.	0c	Cur	0r	.
=71	=71	=71	=71	=71	=71
0r	.	1c	ri-	0r	.
.	.	1c	-gi-	.	.
=72	=72	=72	=72	=72	=72
0r	.	0G	-do	0r	.
=73	=73	=73	=73	=73	=73
0r	.	1G	la-	0r	.
.	.	1G	-tu-	.	.
=74	=74	=74	=74	=74	=74
0r	.	1D	-it,	0r	.
.	.	1d	cur	.	.
=75	=75	=75	=75	=75	=75
0r	.	2c	ri-	0r	.
.	.	2c	-gi-	.	.
.	.	1F	-do	.	.
=76	=76	=76	=76	=76	=76
0r	.	1.f	la-	0c	Cur
.	.	2f	-tu-	.	.
=77	=77	=77	=77	=77	=77
0r	.	1e	-it,	1c	ri-
.	.	2r	.	1c	-gi-
.	.	[2E	cur	.	.
=78	=78	=78	=78	=78	=78
0r	.	2E]	.	0G	-do
.	.	2E	ri-	.	.
.	.	2.E	-gi-	.	.
.	.	4F	.	.	.
=79	=79	=79	=79	=79	=79
0r	.	1G	.	1G	la-
.	.	2.D	.	1G	-tu-
.	.	4E	.	.	.
=80	=80	=80	=80	=80	=80
0r	.	2F	.	0D	-it
.	.	2D	-do	.	.
.	.	2.F	la-	.	.
.	.	4G	.	.	.
=81	=81	=81	=81	=81	=81
0r	.	1A	-tu-	1r	.
.	.	1D	-it	[1A	tu-
=82	=82	=82	=82	=82	=82
0r	.	2r	.	1A]	.
.	.	2D	tu-	.	.
.	.	2.F	-a	1A	-a
.	.	4G	.	.	.
=83	=83	=83	=83	=83	=83
0r	.	2.A	vi-	1A	vi-
.	.	4B	.	.	.
.	.	2c	-ta	1A	-ta
.	.	[2c	in-	.	.
=84	=84	=84	=84	=84	=84
0r	.	2c]	.	1c	in-
.	.	4B	.	.	.
.	.	4A	.	.	.
.	.	2c	-clu-	1c	-clu-
.	.	2G	-sa	.	.
=85	=85	=85	=85	=85	=85
0r	.	1c	se-	1G	-sa
.	.	1c	-pul-	2G	se-
.	.	.	.	[2G	-pul-
=86	=86	=86	=86	=86	=86
0r	.	0B	-cro,	2G]	.
.	.	.	.	4F	.
.	.	.	.	4E	.
.	.	.	.	1G	.
=87	=87	=87	=87	=87	=87
0r	.	[0A	.	0D	-cro,
=88	=88	=88	=88	=88	=88
0r	.	0A]	.	1r	.
.	.	.	.	2A	se-
.	.	.	.	[2A	-pul-
=89	=89	=89	=89	=89	=89
0r	.	0r	.	2A]	.
.	.	.	.	4G	.
.	.	.	.	4F	.
.	.	.	.	1A	.
=90	=90	=90	=90	=90	=90
0r	.	0r	.	0E	-cro,
=91	=91	=91	=91	=91	=91
0r	.	0r	.	2r	.
.	.	.	.	1E	si
.	.	.	.	2E	non
=92	=92	=92	=92	=92	=92
0r	.	2r	.	1G	est
.	.	1E	si	.	.
.	.	.	.	2G	me-
.	.	2E	non	2G	-a
=93	=93	=93	=93	=93	=93
0r	.	1G	est	0G	mors,
.	.	2G	me-	.	.
.	.	2G	-a	.	.
=94	=94	=94	=94	=94	=94
0r	.	0G	mors,	2r	.
.	.	.	.	1B	[si
.	.	.	.	2B	non
=95	=95	=95	=95	=95	=95
0r	.	2r	.	2d	est
.	.	1B	si	2d	me-
.	.	.	.	1d	-a
.	.	2B	non	.	.
=96	=96	=96	=96	=96	=96
0r	.	1d	est	0d	mors,]
.	.	2d	me-	.	.
.	.	2d	-a	.	.
=97	=97	=97	=97	=97	=97
0r	.	0d	mors,	2r	.
.	.	.	.	1D	si
.	.	.	.	2D	non
=98	=98	=98	=98	=98	=98
0r	.	2r	.	1A	est
.	.	1D	si	.	.
.	.	.	.	2A	me-
.	.	2D	non	2A	-a-
=99	=99	=99	=99	=99	=99
0r	.	2A	est	0A	-mors,
.	.	1A	me-	.	.
.	.	2A	-a	.	.
=100	=100	=100	=100	=100	=100
0r	.	2G	mors,	2r	.
.	.	2A	mor-	2A	mor-
.	.	2B	-te	2G	-te
.	.	2A	fu-	2A	fu-
=101	=101	=101	=101	=101	=101
0r	.	2G	-ga-	2B	-ga-
.	.	2.D	.	2A	-ta
.	.	.	.	2d	tu-
.	.	4E	.	.	.
.	.	4F	.	2A	-a,
.	.	4G	.	.	.
=102	=102	=102	=102	=102	=102
0r	.	2A	.	1r	.
.	.	2F	-ta	.	.
.	.	2G	tu-	2r	.
.	.	2A	-a,	2A	mor-
=103	=103	=103	=103	=103	=103
0r	.	2r	.	2G	-te
.	.	2A	mor-	2A	fu-
.	.	2G	-te	2B	-ga-
.	.	[2D	fu-	2A	-ta
=104	=104	=104	=104	=104	=104
0r	.	2D]	.	2d	tu-
.	.	2F	.	2A	-a,
.	.	1E	-ga-	1r	.
=105	=105	=105	=105	=105	=105
0r	.	2D	-ta	2r	.
.	.	1d	tu-	2A	mor-
.	.	.	.	1G	-te
.	.	2c	.	.	.
=106	=106	=106	=106	=106	=106
0r	.	1d	-a,	1A	fu-
.	.	1B	mor-	1B	-ga-
=107	=107	=107	=107	=107	=107
0r	.	1c	-te	1A	-ta
.	.	2.F	fu-	1d	tu-
.	.	4G	.	.	.
=108	=108	=108	=108	=108	=108
0r	.	1A	-ga-	1c	-a,
.	.	1A	-ta	2r	.
.	.	.	.	[2c	tu-
=109	=109	=109	=109	=109	=109
0r	.	1G	tu-	2c]	.
.	.	.	.	4B	.
.	.	.	.	4A	.
.	.	2.E	.	1c	.
.	.	4F	.	.	.
=110	=110	=110	=110	=110	=110
0r	.	[0G	-a?	0G	-a?
=111	=111	=111	=111	=111	=111
0r	.	0G]	.	1r	.
.	.	.	.	[1B	Er-
=112	=112	=112	=112	=112	=112
0r	.	1r	.	1B]	.
.	.	1G	Er-	1B	-go
=113	=113	=113	=113	=113	=113
0r	.	2G	-go	1B	mi-
.	.	1G	mi-	.	.
.	.	.	.	1B	-hi
.	.	4F	.	.	.
.	.	4E	.	.	.
=114	=114	=114	=114	=114	=114
0r	.	1D	-hi	0d	cer-
.	.	2r	.	.	.
.	.	2D	cer-	.	.
=115	=115	=115	=115	=115	=115
0r	.	2.F	-tam	0c	-tam
.	.	4G	.	.	.
.	.	2A	.	.	.
.	.	2F	prae-	.	.
=116	=116	=116	=116	=116	=116
0r	.	2.A	-stes,	1c	prae-
.	.	4B	.	.	.
.	.	2c	o	1c	-stes,
.	.	[2c	Chri-	.	.
=117	=117	=117	=117	=117	=117
0r	.	2c]	.	1c	o
.	.	4B	.	.	.
.	.	4A	.	.	.
.	.	1G	-ste,	1c	Chri-
=118	=118	=118	=118	=118	=118
0r	.	2r	.	1G	-ste,
.	.	2G	sa-	.	.
.	.	2.E	-lu-	2.G	sa-
.	.	4F	.	4A	.
=119	=119	=119	=119	=119	=119
0r	.	0G	-tem,	0B	-lu-
=120	=120	=120	=120	=120	=120
0r	.	1r	.	1B	-tem,
.	.	2r	.	1r	.
.	.	2G	me-	.	.
=121	=121	=121	=121	=121	=121
0r	.	2.G	-que	0d	me-
.	.	4A	.	.	.
.	.	1B	tu-	.	.
=122	=122	=122	=122	=122	=122
0r	.	0A	-o	1d	-que
.	.	.	.	1d	tu-
=123	=123	=123	=123	=123	=123
0r	.	1r	.	0A	-o
.	.	2r	.	.	.
.	.	2c	lo-	.	.
=124	=124	=124	=124	=124	=124
0r	.	2.c	-tum	0c	lo-
.	.	4B	.	.	.
.	.	2.A	san-	.	.
.	.	4G	.	.	.
=125	=125	=125	=125	=125	=125
0r	.	4F	.	1B	-tum
.	.	2G	.	.	.
.	.	4F	.	.	.
.	.	2G	.	1c	san-
.	.	2E	-gui-	.	.
=126	=126	=126	=126	=126	=126
0r	.	1D	-ne,	1A	-gui-
.	.	2E	lo-	1G	-ne,
.	.	2C	-tum	.	.
=127	=127	=127	=127	=127	=127
0r	.	2.E	san-	1r	.
.	.	4F	.	.	.
.	.	2.G	.	[1G	lo-
.	.	4F	.	.	.
=128	=128	=128	=128	=128	=128
0r	.	2.E	.	1G]	.
.	.	4D	.	.	.
.	.	4C	.	1F	-tum
.	.	2D	.	.	.
.	.	4C	-gui-	.	.
=129	=129	=129	=129	=129	=129
0r	.	1D	-ne,	1G	san-
.	.	1r	.	1E	-gui-
=130	=130	=130	=130	=130	=130
0r	.	1A	Chri-	1D	-ne,
.	.	1A	-ste,	1r	.
=131	=131	=131	=131	=131	=131
0r	.	2.A	iu-	[0A	Chri-
.	.	4B	.	.	.
.	.	4c	.	.	.
.	.	4B	.	.	.
.	.	4A	.	.	.
.	.	4G	.	.	.
=132	=132	=132	=132	=132	=132
0r	.	1F	-ves,	1A]	.
.	.	1D	.	1G	-ste,
=133	=133	=133	=133	=133	=133
0r	.	2E	Chri-	1A	iu-
.	.	2C	-ste,	.	.
.	.	4D	iu-	1F	.
.	.	4E	.	.	.
.	.	4F	.	.	.
.	.	4G	.	.	.
=134	=134	=134	=134	=134	=134
0r	.	2A	.	1E	-ves,
.	.	2E	.	.	.
.	.	4C	.	1r	.
.	.	4D	.	.	.
.	.	4E	.	.	.
.	.	4F	.	.	.
=135	=135	=135	=135	=135	=135
0r	.	0G	-ves,	0E	[iu-
=136	=136	=136	=136	=136	=136
0r	.	2r	.	[0BBl	-ves.]
.	.	1G	iu-	.	.
.	.	2E	.	.	.
=137	=137	=137	=137	=137	=137
00r	.	00El	-ves.	00BB]	.
==	==	==	==	==	==
*-	*-	*-	*-	*-	*-
!!!system-decoration: [*]
!!!RDF**kern: i = editorial accidental
!!!RDF**kern: l = terminal long
!!!!PTL: <i> New Senfl Edition: Motets for Five Voices</i>
!!!PPR: Hollitzer Verlag
!!!PC#: Denkmäler der Tonkunst in Österreich 163.3
!!!PDT: 2022
!!!PED: Scott Lee Edwards, Stefan Gasch, and Sonja Tröster
!!!YEC: Copyright 2022 Denkmäler der Tonkunst in Österreich
!!!YEM: CC-BY-NC 4.0 (https://creativecommons.org/licenses/by-nc/4.0/legalcode)
!!!EED: Benjamin Ory
!!!EEV: 2024/9/12
!!!verovio: header encoded
!!!header-left: @{PTL}\n@{PED}, eds.\n@{PC#} (@{PDT})&nbsp;\n
!!!header-right:
!!!header-center:
